X:1
T:Lasst Uns Alle, 76.76
T:Lasst Uns Alle, 76.76
T:Gesangbuch, Ander Teil (Dresden, German
T:Public Domain Courtesy of the Cyber Hymnal™
C:Gesangbuch, Ander Teil (Dresden, German
Z:Public Domain
Z:Courtesy of the Cyber Hymnal™
%%score ( 1 2 ) ( 3 4 )
L:1/8
Q:1/4=115
M:4/4
K:F
V:1 treble 
V:2 treble 
V:3 bass 
V:4 bass 
V:1
 [CF]2 [DF]2 [Cc]2 [Fc]2 | [FB]2 [EG]2 [FA]4 | [EG]2 [CG]2 [FA]2 [Ec]2 | [Gd]4 [Ec]4 | %4
 [Fc]2 [Fd]2 [Ec]2 [FA]2 | [DB]2 [EG]2 [FA]4 | [EG]2 [FA]2 [FB]2 [FA]2 | G4 F4 |] %8
V:2
 x8 | x8 | x8 | x8 | x8 | x8 | x8 | (F2 E2) F4 |] %8
V:3
 [F,A,]2 [D,A,]2 [E,G,]2 [F,A,]2 | [B,,D]2 [C,C]2 [F,C]4 | [C,C]2 [E,G,]2 [F,C]2 [A,C]2 | %3
 (C2 =B,2) [C,C]4 | [F,A,]2 [B,,B,]2 [C,G,]2 [D,F,]2 | [B,,F,]2 [C,C]2 [F,,C]4 | %6
 [C,C]2 [F,C]2 [B,,D]2 [F,,C]2 | [C,C]4 [F,,A,]4 |] %8
V:4
 x8 | x8 | x8 | G,4 x4 | x8 | x8 | x8 | x8 |] %8

